X: 1
T: The Ostrich
R: reel
M: 4/4
L: 1/8
K: Bmin
|:A_B|Bffe (3fga B2|aefg fece|Accc AcAc|fgdc feef|
Bffc ggdg|aefg fece|ac ec fgfg|1 dcB2 A_B:|2 dcB2 z3e||
|:fgdc B2fg|fgdc aefe|cAA aAA fA|A aAA fgdc|
[1 fgdc B2fg|fgdc aefe|cAA aAA fA|A gdcB2 ze:|
[2 Bf(3fff dg (3ggg|ca(3aaa fgdc|ac (3ccc ecfg|fgdc B2||

